X: 21580
T: Kilkenny Girl, The
R: jig
M: 6/8
K: Gmajor
B|:d2B d2B|G3 GAB|c2A c2A|FGA D2B|
d2B g2d|e2c g2e|ded BcA|BGG G3:|
|:DFA cAF|GBd dBG|DFA cAF|GBd dBG|
ece ege|dBd dgd|edc BcA|BGG G3:|

